16x16/apps/org.gna.Warmux.svg

<svg xmlns="http://www.w3.org/2000/svg" width="16" height="16" version="1">
 <rect style="fill:#ffd38d" width="1" height="4" x="10.89" y="-6.34" rx=".131" ry=".178" transform="rotate(30)"/>
 <path fill="#4f4f4f" d="m10.739 1.1465c-0.187-0.1077-0.424-0.0442-0.532 0.1424l-0.5288 0.9159a7.0016 7.0016 0 0 0 -7.7402 3.293 7.0016 7.0016 0 0 0 2.5626 9.5642 7.0016 7.0016 0 0 0 9.5644 -2.563 7.0016 7.0016 0 0 0 -1.019 -8.3478l0.53-0.9171c0.107-0.1867 0.044-0.4236-0.143-0.5314l-2.695-1.5559z"/>
 <path style="fill:#cbcbcb" d="M 7.6484375 4 C 7.5490025 3.9992583 7.4581101 4.0024856 7.3789062 4.0097656 C 6.63361 4.0785215 5.6618801 4.7683338 4.8378906 5.8125 C 4.0413898 6.8218367 3.8125661 7.6268556 4.1523438 8.2207031 C 4.5349867 8.8894769 4.9778595 9.269281 5.5957031 9.4609375 C 6.1242646 9.6248967 6.2816157 9.7253276 6.734375 10.179688 C 7.465198 10.913099 7.7173491 10.995598 9.2539062 11 C 9.9029496 11.0018 10.683834 10.974233 10.990234 10.939453 C 11.443251 10.888023 11.633643 10.827334 12.007812 10.615234 C 13.000371 10.052598 13.161479 9.6706645 12.869141 8.5683594 C 12.777965 8.2245769 12.629632 7.4973643 12.539062 6.953125 C 12.448493 6.4088836 12.33452 5.8803184 12.285156 5.7773438 C 12.065464 5.3190579 11.358568 4.8768157 10.140625 4.4375 C 9.4731389 4.1967353 8.3444791 4.0051276 7.6484375 4 z M 7.1464844 6 C 7.8462598 6.033143 8.0036633 6.7238615 8 7.3144531 C 8 8.1484224 7.8926195 8.4702313 7.5097656 8.7890625 C 7.2238187 9.0271932 6.5255056 9.0767286 6.3164062 8.8730469 C 6.0979117 8.6602188 6 8.2621855 6 7.5859375 C 6 6.5675098 6.4095867 6.0003011 7.1464844 6 z M 10.023438 6 C 10.153194 5.99726 10.290977 6.046468 10.457031 6.1464844 C 10.628435 6.2497294 10.82079 6.4154989 10.884766 6.515625 C 11.037349 6.7544324 11.039463 7.2941303 10.888672 7.8925781 C 10.661313 8.7957554 10.206484 9.1595102 9.5839844 8.9375 C 9.3444415 8.8520664 9.0626299 8.4454063 9.0117188 8.1132812 C 8.9294509 7.5766268 9.2958881 6.4421445 9.640625 6.1640625 C 9.7723257 6.0578273 9.8936755 6.00271 10.023438 6 z M 4.9648438 10 C 4.7125505 9.9988 4.4451001 10.06862 4.1875 10.210938 C 3.8717803 10.385357 3.2554517 10.992656 3.0917969 11.291016 C 2.7821065 11.855614 3.2966011 12.727226 4.0683594 12.945312 C 4.33983 13.022023 4.3440953 13.022548 4.5898438 12.923828 C 4.8820042 12.806465 5.0246178 12.646694 5.53125 11.882812 C 5.8734935 11.366796 5.9655194 11.174728 5.9902344 10.912109 C 6.0181984 10.614989 5.9990637 10.562508 5.8007812 10.349609 C 5.5866444 10.119678 5.2892206 10.001495 4.9648438 10 z M 7.21875 12 C 6.7334439 12 6.386679 12.366297 6.1621094 13.117188 C 5.9674698 13.768012 5.9463997 14.320175 6.1074219 14.513672 C 6.3878979 14.850712 7.4271848 15.123988 7.7441406 14.943359 C 7.8764527 14.867959 7.9176088 14.753935 7.9804688 14.296875 C 8.0406378 13.85936 7.9559628 12.882989 7.8261719 12.505859 C 7.7104315 12.169564 7.507528 12 7.21875 12 z M 9.9941406 12 C 9.9506216 11.999667 9.9001218 12.001259 9.8398438 12.005859 C 9.4802454 12.033309 9.2868192 12.156557 9.1132812 12.464844 C 8.9975858 12.670367 8.9859243 12.745646 9.0097656 13.162109 C 9.0395216 13.681599 9.1214452 13.947709 9.2617188 13.986328 C 9.412387 14.027808 10.087529 13.966915 10.384766 13.884766 C 10.750287 13.783758 11 13.586077 11 13.396484 C 11 13.194071 10.472834 12.23214 10.287109 12.095703 C 10.193979 12.027293 10.124705 12.0011 9.9941406 12 z"/>
</svg>

<svg xmlns="http://www.w3.org/2000/svg" width="16" height="16" version="1"><rect style="fill:#ffd38d" width="1" height="4" x="10.89" y="-6.34" rx=".131" ry=".178" transform="rotate(30)"/><path fill="#4f4f4f" d="M10.739 1.147a.389.389 0 0 0-.532.142l-.529.916a7.002 7.002 0 0 0-7.74 3.293 7.002 7.002 0 0 0 2.563 9.564 7.002 7.002 0 0 0 9.564-2.563 7.002 7.002 0 0 0-1.019-8.348l.53-.917a.389.389 0 0 0-.143-.531l-2.695-1.556z"/><path style="fill:#cbcbcb" d="M7.648 4c-.099 0-.19.002-.27.01-.744.069-1.716.758-2.54 1.803-.797 1.009-1.025 1.814-.686 2.408.383.668.826 1.048 1.444 1.24.528.164.686.264 1.138.719.731.733.983.816 2.52.82.649.002 1.43-.026 1.736-.06.453-.052.644-.113 1.018-.325.992-.562 1.153-.944.861-2.047a22.075 22.075 0 0 1-.33-1.615c-.09-.544-.204-1.073-.254-1.176-.22-.458-.926-.9-2.144-1.34-.668-.24-1.797-.432-2.493-.437zm-.502 2c.7.033.858.724.854 1.314 0 .834-.107 1.156-.49 1.475-.286.238-.984.288-1.194.084C6.098 8.66 6 8.263 6 7.586 6 6.568 6.41 6 7.146 6zm2.877 0c.13-.003.268.046.434.146.171.104.364.27.428.37.152.238.154.778.004 1.377-.228.903-.683 1.267-1.305 1.045-.24-.086-.521-.493-.572-.825-.083-.536.284-1.67.629-1.949.131-.106.253-.161.382-.164zm-5.058 4a1.6 1.6 0 0 0-.777.21c-.316.175-.933.783-1.096 1.081-.31.565.205 1.436.976 1.654.272.077.276.078.522-.021.292-.118.435-.277.941-1.041.342-.516.435-.708.46-.97.027-.298.008-.35-.19-.563a1.128 1.128 0 0 0-.836-.35zm2.254 2c-.486 0-.832.366-1.057 1.117-.195.651-.216 1.203-.055 1.397.28.337 1.32.61 1.637.43.132-.076.174-.19.236-.647.06-.438-.024-1.414-.154-1.791C7.71 12.17 7.508 12 7.22 12zm2.775 0a1.84 1.84 0 0 0-.154.006c-.36.027-.553.15-.727.459-.115.205-.127.28-.103.697.03.52.111.786.252.824.15.042.826-.02 1.123-.101.365-.101.615-.299.615-.489 0-.202-.527-1.164-.713-1.3A.432.432 0 0 0 9.994 12z"/></svg>
